assets/images/StarterX-Badges_Financial-Stability-.svg

<svg width="80" height="80" viewBox="0 0 80 80" fill="none" xmlns="http://www.w3.org/2000/svg">
<path d="M39.96 78.82C18.13 78.82 1.19001 61.79 1.19001 39.85C1.18001 18.1 18.39 1.09997 40.3 1.17997C61.84 1.25997 78.81 18.33 78.81 39.91C78.81 61.79 61.81 78.82 39.96 78.81V78.82ZM40.7 9.25997C16.96 9.19997 1.75001 34.1 12.68 54.26C13.94 56.59 15.12 59.02 18.11 56.02C30.77 43.3 43.44 30.59 56.12 17.88C58 16 57.72 14.53 55.42 13.29C50.65 10.74 45.7 8.93997 40.7 9.24997V9.25997ZM70.7 39.19C71.01 34.89 69.43 30.23 67.32 25.66C65.63 21.99 63.85 21.9 61.05 24.73C49.07 36.87 37.02 48.93 24.87 60.89C21.79 63.92 22.12 65.58 25.93 67.49C46.41 77.75 70.72 62.89 70.7 39.19Z" fill="#008A9B"/>
</svg>

<?xml version="1.0" encoding="UTF-8"?>
<svg id="Layer_1" data-name="Layer 1" xmlns="http://www.w3.org/2000/svg" xmlns:xlink="http://www.w3.org/1999/xlink" viewBox="0 0 80 80">
  <defs>
    <style>
      .cls-1 {
        fill: url(#linear-gradient);
        stroke-width: 0px;
      }
    </style>
    <linearGradient id="linear-gradient" x1="2.83" y1="3.82" x2="79.68" y2="78.66" gradientUnits="userSpaceOnUse">
      <stop offset="0" stop-color="#b1a45d"/>
      <stop offset="1" stop-color="#453e1b"/>
    </linearGradient>
  </defs>
  <g id="An4C3e.tif">
    <path class="cls-1" d="M39.96,78.82c-21.83,0-38.77-17.03-38.77-38.97C1.18,18.1,18.39,1.1,40.3,1.18c21.54.08,38.51,17.15,38.51,38.73,0,21.88-17,38.91-38.85,38.9ZM40.7,9.26c-23.74-.06-38.95,24.84-28.02,45,1.26,2.33,2.44,4.76,5.43,1.76,12.66-12.72,25.33-25.43,38.01-38.14,1.88-1.88,1.6-3.35-.7-4.59-4.77-2.55-9.72-4.35-14.72-4.04ZM70.7,39.19c.31-4.3-1.27-8.96-3.38-13.53-1.69-3.67-3.47-3.76-6.27-.93-11.98,12.14-24.03,24.2-36.18,36.16-3.08,3.03-2.75,4.69,1.06,6.6,20.48,10.26,44.79-4.6,44.77-28.3Z"/>
  </g>
</svg>
